X: 22481
T: Lady Blainey
R: barndance
M: 4/4
K: Dmajor
f2 a2 abag|fgfe d2 z2|B2 B2 gfed|cdBc A2 fe|
d2 a2 fgaf|bagf e2 z2|gfed c2 d2|e2 f2 B2 z2|
A2 BA G2 AG|F2 GF E2 D2|e2 fe d2 ed|c2 dc B2 A2|
A2 f2 g2 f2|e4 z2 A2|BAGF GFED|d4 d2 z2||
A2 AF D2 A2|D2 F2 A2 F2|BABG E2 B2|E2 G2 B2 G2|
FAFA A4|GBGB B4|cece e4|defg a3g|
f2 a2 abaf|g2 d2 dcde|d2 c2 B2 B2|A2 G2 F2 f2|
bagf e2 e2|agfe d2 d2|efed cdcB|A2 A2 A2 Bc|
dAFA dAFA|d4 z2 cd|eBGB eBGB|e4 z2 AG|
F2 A2 d2 dc|B2 d2 g2 f2|efed dcBc|d4 d2 z2||

